X:9
T:Country Dance. JGi.009
S:Joshua Gibbons MS,1823,Tealby,Lincs.
M:4/4
L:1/8
Q:1/2=90
R:Reel
O:Tealby,Lincolnshire
Z:VMP/R.Greig, 2009
K:G
G2BGd2BG|G2BG FAA2|G2BG d2BG|BABG EGG2:|
|:gfed Bdd2|gfed fa a2|gfed Bdd2|BABG EGG2:|

